pejdijmoenmkgeppbflobdenhhabjlaj_patched/images/close.svg

<svg height="32" viewBox="0 0 32 32" width="32" xmlns="http://www.w3.org/2000/svg"><path d="m.8351675 31.163434c.3802961.373926.825053.622136 1.3342707.744632.5092176.122494 1.0136038.122494 1.5131582 0 .4995546-.122496.9265956-.361036 1.2811232-.715621l11.0416834-11.043762 11.022397 11.034087c.36741.367485.800894.61086 1.300448.730132.499555.11927 1.00072.116046 1.503495-.009672.502777-.125717.941091-.37554 1.314945-.74947.373852-.373926.623632-.812324.749332-1.315194.125673-.502869.128894-1.004126.009663-1.503772-.119259-.499644-.359373-.933208-.720343-1.300689l-11.022356-11.043781 11.022356-11.0244194c.36097-.3674806.602695-.801045.725174-1.3006929.122453-.499648.119232-.999296-.009664-1.498944-.12892-.499648-.38031-.936434-.754162-1.3103579-.380323-.38036733-.820261-.63341299-1.319816-.759137-.499528-.12572401-.999069-.12894567-1.498624-.00966498-.499554.11928068-.933038.36266138-1.300448.73014198l-11.022397 11.0244192-11.0416834-11.0341238c-.3545276-.35456757-.7831792-.5914917-1.2859546-.7107724-.5027757-.11925428-1.0087723-.11925428-1.51799 0-.5092177.1192807-.9507535.3691047-1.3246075.749472-.3674119.3739239-.61074701.8139316-.73000538 1.3200229-.11923197.5060913-.11923197 1.0105718 0 1.5134413.11925837.50287.35291712.92838.70097628 1.2765306l11.0417226 11.0340844-11.0417226 11.063123c-.34805916.34814-.58493897.772033-.71063946 1.271678s-.12731102 1.004125-.00483159 1.513441.37064615.950939.74450015 1.324868z" opacity=".6"/></svg>

<svg xmlns="http://www.w3.org/2000/svg" width="32" height="32" viewBox="0 0 32 32">
  <g>
    <path d="M .8351675 31.163434 C 1.2154636 31.53736 1.6602205 31.78557 2.1694382 31.908066 C 2.6786558 32.03056 3.183042 32.03056 3.6825964 31.908066 C 4.182151 31.78557 4.609192 31.54703 4.9637196 31.192445 L 16.005403 20.148683 L 27.0278 31.18277 C 27.39521 31.550255 27.828694 31.79363 28.328248 31.912902 C 28.827803 32.032172 29.328968 32.028948 29.831743 31.90323 C 30.33452 31.777513 30.772834 31.52769 31.146688 31.15376 C 31.52054 30.779834 31.77032 30.341436 31.89602 29.838566 C 32.021693 29.335697 32.024914 28.83444 31.905683 28.334794 C 31.786424 27.83515 31.54631 27.401586 31.18534 27.034105 L 20.162984 15.990324 L 31.18534 4.9659046 C 31.54631 4.598424 31.788035 4.1648596 31.910514 3.6652117 C 32.032967 3.1655637 32.029746 2.6659157 31.90085 2.1662677 C 31.77193 1.6666197 31.52054 1.2298337 31.146688 .8559098 C 30.766365 .47554247 30.326427 .22249681 29.826872 .0967728 C 29.327344 -.028951213 28.827803 -.032172874 28.328248 .08710782 C 27.828694 .2063885 27.39521 .4497692 27.0278 .8172498 L 16.005403 11.841669 L 4.9637196 .8075452 C 4.609192 .45297763 4.1805404 .2160535 3.677765 .0967728 C 3.1749893 -.022481483 2.6689927 -.022481483 2.159775 .0967728 C 1.6505573 .2160535 1.2090215 .4658775 .8351675 .8462448 C .4677556 1.2201687 .22442049 1.6601764 .10516212 2.1662677 C -.014069853 2.672359 -.014069853 3.1768395 .10516212 3.679709 C .22442049 4.182579 .45807924 4.608089 .8061384 4.9562396 L 11.847861 15.990324 L .8061384 27.053447 C .45807924 27.401587 .22119943 27.82548 .09549894 28.325125 C -.030201548 28.82477 -.031812077 29.32925 .09066735 29.838566 C .21314678 30.347882 .4613135 30.789505 .8351675 31.163434 Z" fill="black" opacity=".6"/>
  </g>
</svg>
